src/icon/brand/forex/icon_forex_xxl_white.svg

<?xml version="1.0" encoding="UTF-8"?>
<svg width="48px" height="48px" viewBox="0 0 48 48" version="1.1" xmlns="http://www.w3.org/2000/svg" xmlns:xlink="http://www.w3.org/1999/xlink">
    <!-- Generator: Sketch 49.3 (51167) - http://www.bohemiancoding.com/sketch -->
    <title>icon_forex_xxl_white</title>
    <desc>Created with Sketch.</desc>
    <defs></defs>
    <g id="Page-1" stroke="none" stroke-width="1" fill="none" fill-rule="evenodd">
        <g id="forex_white" transform="translate(0.000000, -1.000000)" fill="#FFFFFF">
            <g id="icon_forex_xxl_white" transform="translate(0.000000, 1.000000)">
                <polygon id="Fill-1" points="12.9678404 11.0769231 12.8969165 11.0769231 7.38461538 29.5384615 18.4615385 29.5384615"></polygon>
                <g id="Group-8">
                    <path d="M21.4937514,38.6536 L3.36402162,38.6536 C3.06564324,39.4976 0.00012972973,48.0002667 0.00012972973,48.0002667 L24.8511568,48.0002667 C24.8511568,48.0002667 21.7947243,39.4976 21.4937514,38.6536" id="Fill-2"></path>
                    <path d="M40.9848649,18.1276 L32.2242162,18.1276 C32.2216216,14.8676 32.219027,11.7262667 32.2138378,9.00226667 L43.6326486,9.00226667 C44.0672432,9.00226667 44.5407568,8.6396 44.6912432,8.19426667 L47.1807568,0.8436 C47.3338378,0.398266667 47.1055135,0.0369333333 46.6709189,0.0369333333 L12.4287568,0.0369333333 L12.4287568,0.124933333 L12.4365405,0.124933333 C17.1509189,0.124933333 18.6843243,3.64626667 19.8765405,7.06226667 C20.4927568,8.8276 31.7078919,42.7116 32.1554595,44.0049333 C32.2099459,44.1582667 32.2268108,36.2449333 32.2281081,27.0929333 L37.9452973,27.0929333 C38.3798919,27.0929333 38.8534054,26.7302667 39.0064865,26.2836 L41.496,18.9342667 C41.6477838,18.4889333 41.4168649,18.1276 40.9848649,18.1276" id="Fill-5"></path>
                </g>
            </g>
        </g>
    </g>
</svg>

<svg width="48" height="48" viewBox="0 0 48 48" xmlns="http://www.w3.org/2000/svg"><g fill="#FFF" fill-rule="evenodd"><path d="M12.968 11.077h-.071L7.385 29.538h11.077zM21.494 38.654H3.364C3.066 39.498 0 48 0 48h24.851s-3.056-8.502-3.357-9.346M40.985 18.128h-8.76c-.003-3.26-.006-6.402-.011-9.126h11.419c.434 0 .908-.362 1.058-.808l2.49-7.35c.153-.446-.075-.807-.51-.807H12.429v.088h.008c4.714 0 6.247 3.521 7.44 6.937.616 1.766 11.83 35.65 12.278 36.943.055.153.072-7.76.073-16.912h5.717c.435 0 .908-.363 1.061-.81l2.49-7.349c.152-.445-.08-.806-.511-.806"/></g></svg>
